X: 12175
T: Exile's Jig, The
R: slip jig
M: 9/8
K: Edorian
e|:edB B2A G2E|E2e e2d efg|edB B2A G2A|Bdd d2B def|
edB B2A G2E|E2e e2d efg|edB B2A G2A|Bdd d2B def:|
|:e2f gfe fed|Bee eed edB|e2f gfe fed|BAB d2B def|
e2f gfe fed|Bee eed efg|agf gfe fed|BAB d2B def:|

